src/assets/images/other.svg

<svg width="36" height="29" viewBox="0 0 36 29" fill="none" xmlns="http://www.w3.org/2000/svg">
<g clip-path="url(#clip0_2311_25348)">
<mask id="mask0_2311_25348" style="mask-type:luminance" maskUnits="userSpaceOnUse" x="0" y="0" width="36" height="29">
<path d="M21.6 0H14.4C7.6122 0 4.2174 -2.14577e-07 2.1096 2.1096C0.5904 3.627 0.1656 5.8122 0.0468 9.45H35.9532C35.8344 5.8122 35.4096 3.627 33.8904 2.1096C31.7826 -2.14577e-07 28.3878 0 21.6 0ZM14.4 28.8H21.6C28.3878 28.8 31.7826 28.8 33.8904 26.6904C36 24.5826 36 21.1878 36 14.4C36 13.6044 36 12.8556 35.9964 12.15H0.00360017C1.68057e-07 12.8556 0 13.6044 0 14.4C0 21.1878 -2.14577e-07 24.5826 2.1096 26.6904C4.2174 28.8 7.6122 28.8 14.4 28.8Z" fill="white"/>
<path fill-rule="evenodd" clip-rule="evenodd" d="M5.84998 21.6C5.84998 21.242 5.99221 20.8986 6.24538 20.6454C6.49856 20.3922 6.84193 20.25 7.19998 20.25H14.4C14.758 20.25 15.1014 20.3922 15.3546 20.6454C15.6077 20.8986 15.75 21.242 15.75 21.6C15.75 21.958 15.6077 22.3014 15.3546 22.5546C15.1014 22.8078 14.758 22.95 14.4 22.95H7.19998C6.84193 22.95 6.49856 22.8078 6.24538 22.5546C5.99221 22.3014 5.84998 21.958 5.84998 21.6ZM17.55 21.6C17.55 21.242 17.6922 20.8986 17.9454 20.6454C18.1986 20.3922 18.5419 20.25 18.9 20.25H21.6C21.958 20.25 22.3014 20.3922 22.5546 20.6454C22.8077 20.8986 22.95 21.242 22.95 21.6C22.95 21.958 22.8077 22.3014 22.5546 22.5546C22.3014 22.8078 21.958 22.95 21.6 22.95H18.9C18.5419 22.95 18.1986 22.8078 17.9454 22.5546C17.6922 22.3014 17.55 21.958 17.55 21.6Z" fill="black"/>
</mask>
<g mask="url(#mask0_2311_25348)">
<path d="M-3.59998 -7.20117H39.6V35.9988H-3.59998V-7.20117Z" fill="black"/>
<path d="M-3.59998 -7.20117H39.6V35.9988H-3.59998V-7.20117Z" fill="url(#paint0_linear_2311_25348)"/>
</g>
</g>
<defs>
<linearGradient id="paint0_linear_2311_25348" x1="39.9062" y1="10.4716" x2="-4.02909" y2="11.2329" gradientUnits="userSpaceOnUse">
<stop offset="0.0564" stop-color="#E2C299"/>
<stop offset="0.9429" stop-color="#C5A67C"/>
</linearGradient>
<clipPath id="clip0_2311_25348">
<rect width="36" height="28.8" fill="white" transform="translate(0 -0.00195312)"/>
</clipPath>
</defs>
</svg>

<svg width="48" height="29" viewBox="0 0 36 29" fill="none" xmlns="http://www.w3.org/2000/svg"><g clip-path="url(#a)"><mask id="b" style="mask-type:luminance" maskUnits="userSpaceOnUse" x="0" y="0" width="36" height="29"><path d="M21.6 0h-7.2C7.612 0 4.217 0 2.11 2.11.59 3.627.166 5.812.047 9.45h35.906c-.119-3.638-.543-5.823-2.063-7.34C31.783 0 28.388 0 21.6 0m-7.2 28.8h7.2c6.788 0 10.183 0 12.29-2.11C36 24.583 36 21.188 36 14.4q.001-1.192-.004-2.25H.004Q-.001 13.208 0 14.4c0 6.788 0 10.183 2.11 12.29C4.217 28.8 7.612 28.8 14.4 28.8" fill="#fff"/><path fill-rule="evenodd" clip-rule="evenodd" d="M5.85 21.6a1.35 1.35 0 0 1 1.35-1.35h7.2a1.35 1.35 0 1 1 0 2.7H7.2a1.35 1.35 0 0 1-1.35-1.35m11.7 0a1.35 1.35 0 0 1 1.35-1.35h2.7a1.35 1.35 0 1 1 0 2.7h-2.7a1.35 1.35 0 0 1-1.35-1.35" fill="#000"/></mask><g mask="url(#b)"><path d="M-3.6-7.201h43.2v43.2H-3.6z" fill="#000"/><path d="M-3.6-7.201h43.2v43.2H-3.6z" fill="url(#c)"/></g></g><defs><linearGradient id="c" x1="39.906" y1="10.472" x2="-4.029" y2="11.233" gradientUnits="userSpaceOnUse"><stop offset=".056" stop-color="#E2C299"/><stop offset=".943" stop-color="#C5A67C"/></linearGradient><clipPath id="a"><path fill="#fff" d="M0-.002h36v28.8H0z"/></clipPath></defs></svg>
